X: 2134
T: Atlantic Wave, The
R: reel
M: 4/4
K: Gmajor
dB|G2GF GBdB|cBcd efge|(3dgd BG dGBG|FDAD BdAB|
G2GF GBdB|cBcd efge|dgfg ecAF|GBAF G2||
Bd|(3gbg (3faf (3efe dc|dfab afdg|bagf gdBG|FDAD BdAB|
G2GF GBdB|cBcd efge|dgfg ecAF|GBAF G2||

